!!!OTL: Die feste Burg.
!!!OTL-incipit: EIN FESTE BURG IST UNSER GOTT
!!!ARE: Europa, Mitteleuropa, Deutschland
!!!SCT: Z1118
!!!TXL: @@DE
!!!YEM: Copyright 1995, estate of Helmut Schaffrath.
**kern	**text
*ICvox	*
*M4/4	*
*met(c)	*
*k[f#c#]	*
*D:	*
!LO:TX:a:t=Nach Martin Luther.	!
{2dd/	Ein'
=1	=1
2dd/	fe-
2dd/	-ſte
=2	=2
(>4a	Burg
4b/)	.
2cc#/	iſt
=3	=3
(4dd/	un-
4cc#)	.
2b/	-ſer
=4	=4
2a;}	Gott,
{2dd/	ein'
=5	=5
2cc#/	gu-
2b/	-te
=6	=6
2a/	Wehr
(>4b/	und
4a)	.
=7	=7
(>4g	Waf-
4f#)	.
2e	.
=8	=8
2d;}	-fen,
{2dd/	er
=9	=9
2dd/	hilft
2dd/	uns
=10	=10
4a	frei
4b/	.
2cc#/	aus
=11	=11
(>4dd/	al-
4cc#/)	.
2b/	-ler
=12	=12
2a;}	Noth,
{2dd/	die
=13	=13
2cc#/	uns
2b/	jetʒt
=14	=14
2a	hat
(4b/	be-
4a)	.
=15	=15
4g	-trof-
4f#	.
2e	.
=16	=16
2d;}	-fen;
{2d	der
=17	=17
2a	alt'
2b/	.
=18	=18
(>2a	böſ'
2g#)	.
=19	=19
2a;}	Feind
{2d	mit
=20	=20
2a	Ernſt
2f#	.
=21	=21
2b/	er's
2cc#/	jetʒt
=22	=22
2dd/;}	meint,
{2cc#/	groß
=23	=23
(>2dd	Macht
2cc#/)	und
=24	=24
(1b	viel
=25	=25
2a;)}	Liſt
{2b/	ſein
=26	=26
2b/	grau-
2a	-ſam
=27	=27
2b/	Rüſt-
2g	-ʒeug
=28	=28
2f#;}	iſt,
{2ddn/	auf
=29	=29
2cc#/	Erd'
2b/	iſt
=30	=30
2a	nicht
(>4b/	ſein's
4a)	.
=31	=31
(4g	Glei-
4f#	.
2e)	.
=32	=32
2d;}	-chen.
==	==
!!!AGN: religioeses Lied
!!!ONB: ESAC (Essen Associative Code) Database: ZUCCAL
!!!AMT: simple quadruple
!!!AIN: vox
!!!EED: Helmut Schaffrath
!!!EEV: 1.0
!!!RDF**kern: >= above
!!!GTL: III. Haus- Andacht.
!!!URL-scan: https://www.digitale-sammlungen.de/de/view/bsb11160573?page=253
!!!ENC: Anna Maria Matuszewska
!!!EEV: 2025/02/04
*-	*-
